Sources/FrostedUI/Resources/Icons.xcassets/messages32.imageset/messages-32.svg

<svg width="32" height="32" viewBox="0 0 32 32" fill="none" xmlns="http://www.w3.org/2000/svg" data-fui-icon="true">
  <path
    d="M25.6689 4.25C27.5558 4.25 29.0859 5.78 29.0859 7.66699V16.333C29.0859 18.22 27.5558 19.75 25.6689 19.75H23.752V21.667C23.7518 23.5538 22.2226 25.0829 20.3359 25.083H14.1973L8.36621 28.3223C8.1341 28.451 7.85089 28.448 7.62207 28.3135C7.39329 28.1787 7.25207 27.9325 7.25195 27.667V25.083H6.33594C4.44925 25.0828 2.91912 23.5537 2.91895 21.667V13C2.91895 11.1131 4.44913 9.58321 6.33594 9.58301H8.58594V7.66699C8.58594 5.78025 10.1153 4.25037 12.002 4.25H25.6689ZM6.33594 11.083C5.27756 11.0832 4.41895 11.9416 4.41895 13V21.667C4.41912 22.7253 5.27766 23.5828 6.33594 23.583H8.00195C8.41606 23.583 8.75178 23.9189 8.75195 24.333V26.3916L13.6377 23.6777C13.7489 23.616 13.8748 23.5831 14.002 23.583H20.3359C21.3942 23.5829 22.2518 22.7253 22.252 21.667V19.0576C22.2505 19.0386 22.249 19.0194 22.249 19C22.249 18.9803 22.2505 18.9607 22.252 18.9414V13C22.252 11.9416 21.3943 11.0831 20.3359 11.083H6.33594ZM12.002 5.75C10.9437 5.75037 10.0859 6.60868 10.0859 7.66699V9.58301H20.3359C22.2227 9.58315 23.752 11.1131 23.752 13V18.25H25.6689C26.7274 18.25 27.5859 17.3916 27.5859 16.333V7.66699C27.5859 6.60846 26.7274 5.75 25.6689 5.75H12.002Z"
    fill="currentColor"
  />
</svg>

<svg xmlns="http://www.w3.org/2000/svg" width="32" height="32" fill="none" data-fui-icon="true" viewBox="0 0 32 32"><path fill="currentColor" d="M25.669 4.25a3.417 3.417 0 0 1 3.417 3.417v8.666a3.417 3.417 0 0 1-3.417 3.417h-1.917v1.917a3.416 3.416 0 0 1-3.416 3.416h-6.139l-5.83 3.24a.75.75 0 0 1-1.115-.656v-2.584h-.916a3.417 3.417 0 0 1-3.417-3.416V13a3.417 3.417 0 0 1 3.417-3.417h2.25V7.667a3.417 3.417 0 0 1 3.416-3.417zM6.336 11.083A1.92 1.92 0 0 0 4.419 13v8.667c0 1.058.859 1.916 1.917 1.916h1.666a.75.75 0 0 1 .75.75v2.059l4.886-2.714a.75.75 0 0 1 .364-.095h6.334a1.916 1.916 0 0 0 1.916-1.916v-2.61a1 1 0 0 1 0-.116V13a1.917 1.917 0 0 0-1.916-1.917zm5.666-5.333a1.917 1.917 0 0 0-1.916 1.917v1.916h10.25A3.417 3.417 0 0 1 23.752 13v5.25h1.917a1.917 1.917 0 0 0 1.917-1.917V7.667a1.917 1.917 0 0 0-1.917-1.917z"/></svg>
